X: 1
T: Dennis Doodys
R: polka
M: 2/4
L: 1/8
Z: Contributed 2016-04-07 08:32:36 by Jim jsofgrant@gmail.com
K: Emin
|:GE ED|B,E EF|G>F ED|GA BA/B/|
|GE ED|B,E EG|BB/A/ GF|1 E2 E2:||
|:Be ef  | ed BA|Be df |e2 ef|
|ga/g/ fg/f/|ed B>A|BE E/F/G/A/| B2 BA:||



